X: 10412
T: BROWN'S HORNPIPE
C:
%R: hornpipe, reel
B: Elias Howe "The Musician's Companion" Part 1 1842 p.41 #2
S: http://imslp.org/wiki/The_Musician's_Companion_(Howe,_Elias)
Z: 2015 John Chambers <jc:trillian.mit.edu>
M: 2/4
L: 1/16
K: A
% - - - - - - - - - - - - - - - - - - - - - - - - -
E2 |\
A2A2 ABcd | edcB ABcA | B2B2 Bcde | fdBA GBGE |\
A2A2 ABcd | edcB A2a2 | gbge faf^d | e2e2e2 :|
|: E2 |\
B2B2 Bcde | fdBA GBGE | e2e2 efga | bged ceae |\
f2d2 dfaf | e2c2 ceae | cecA BdBG | A2A2A2 :|
% - - - - - - - - - - - - - - - - - - - - - - - - -


